X:1
T:Ascendit Deus, 88.7 D
T:Johann Gottfried Schict (1753-1823)
T:Ascendit Deus, 88.7 D
T:Public Domain
C:Johann Gottfried Schict (1753-1823)
Z:Public Domain
%%score ( 1 2 ) ( 3 4 )
L:1/8
M:4/4
K:Ab
V:1 treble 
V:2 treble 
V:3 bass 
V:4 bass 
V:1
 [CE]2 | [DF]2 [DG]2 [EA]2 [EG]2 | [EA]2 (FG) [Ac]2 [Ac]2 | [Ge]2 [Fd]2 [Ec]2 A2 | %4
 [Fd]2 [Ac]2 [GB]2 [GB]2 | [Ac]2 [A=d]2 (GF) [EA]2 | [EG]2 [=DF]2 E2 [B,E]2 | (ED)(CB,) [A,F]2 D2 | %8
 [FB]2 [EA]2 [EG]2 [=DG]2 | [Gc]2 [=EG]2 [FA]2 [CF]2 | [Fd]2 [Ac]2 [GB]2 [GB]2 | %11
 [Ac]2 [EA]2 [Ee]2 (dc) | (A2 G2) [EA]2 |] %13
V:2
 x2 | x8 | x2 B2 x4 | x6 A2 | x8 | x4 e2 x2 | x4 E2 x2 | A2 E2 x D2 x | x8 | x8 | x8 | x6 A2 | %12
 B4 x2 |] %13
V:3
 [A,,A,]2 | [D,A,]2 [B,,B,]2 [C,A,]2 (D,D,) | [C,C]2 [B,,D]2 [A,,E]2 [A,C]2 | %3
 [E,B,]2 [F,A,][G,B,] [A,C]2 [F,C]2 | [B,,F]2 (C,D,) [E,E]2 [E,E]2 | [A,E]2 [F,F]2 [G,B,]2 [A,C]2 | %6
 z2 z A, [E,G,]2 (E,D,) | [C,A,]2 (A,G,) [D,F,]2 (D,C,) | [B,,D]2 C,D, [E,B,]2 (G,F,) | %9
 [=E,C]2 [C,C]2 [F,C]2 (F,_E,) | (A,B,)(CD) [E,E]2 [E,E]2 | (ED)(CB,) [C,A,]2 [D,F]2 | %12
 (B,2 ED) [A,,C]2 |] %13
V:4
 x2 | x6 B,2 | x8 | x8 | x2 E2 x4 | x8 | B,3 (B,,2 x G,2) | x2 A,,2 x F,2 x | x2 C2 x =B,2 x | %9
 x6 A,2 | D,2 A,2 x4 | A,2 A,,2 x4 | E,4 x2 |] %13

